!!!COM: Beethoven
!!!OTL: 9 Variationen uber "Quant' e piu bello" von G. Paisiello
!!!Variation: Variation 8 b2
**function	**harm	**kern	**kern
*	*	*clefF4	*clefG2
*	*	*k[f#c#g#]	*k[f#c#g#]
*M2/4	*M2/4	*M2/4	*M2/4
*A:	*A:	*A:	*A:
8T	8I	16F#	8r
.	.	16G#JJ	.
=209	=209	=209	=209
2T	2I	16ALL	4r
.	.	16B	.
.	.	16c#	.
.	.	16dJJ	.
.	.	8eL	16r
.	.	.	(16cc#LL
.	.	8eJ	16b#
.	.	.	16cc#JJ
=210	=210	=210	=210
2T	2V7c	(4d	16bLL
.	.	.	16a
.	.	.	16g#
.	.	.	16f#JJ
.	.	8B)	16e'LL)
.	.	.	16e
.	.	8r	16f#
.	.	.	16g#JJ
*	*	*clefG2	*
=211	=211	=211	=211
2T	2I	4r	16aLL
.	.	.	16b
.	.	.	16cc#
.	.	.	16ddJJ
.	.	16r	8eeL
.	.	(16cc#LL	.
.	.	16b#	8eeJ
.	.	16cc#JJ	.
=212	=212	=212	=212
4T	4V7	16bLL	(4dd
.	.	16a	.
.	.	16g#	.
.	.	16f#JJ	.
16T	16V7	16eLL)	8b)
8.T	8.I	16A	.
.	.	16B	8r
.	.	16c#JJ	.
=213	=213	=213	=213
4T	4IV	16dLL	4r
.	.	16e	.
.	.	16f#	.
.	.	16g#JJ	.
4T	4Ib	16aLL	16r
.	.	16c#	16eeeLL
.	.	16d	16ddd
.	.	16eJJ	16ccc#JJ
=214	=214	=214	=214
2T	2Ib	16f#LL	16bbLL
.	.	16g#	16aa
.	.	16a	16gg#
.	.	16bJJ	16ff#JJ
.	.	8cc#	16eeLL
.	.	.	16aa
.	.	8r	16gg#
.	.	.	16ff#JJ
*	*	*clefF4	*
=215	=215	=215	=215
4.D	4.Cc	4r	16eeLL
.	.	.	16dd
.	.	.	16cc#
.	.	.	16bJJ
.	.	8r	8aL
8D	8V7	8E 8d	8g#J
=216	=216	=216	=216
4.T	4.I	8AL	4c# 4a
.	.	8EJ	.
.	.	8AA	8r
*-	*-	*-	*-
